src/icons/Link_BehindtheScenes-01.svg

<svg width="43" height="38" viewBox="0 0 43 38" fill="none" xmlns="http://www.w3.org/2000/svg">
<g clip-path="url(#clip0)">
<path d="M41.9424 21.5264L41.9066 21.4606C41.4995 20.7125 40.9885 20.026 40.3888 19.4216L32.268 11.3611L32.1724 11.2774C31.1476 10.2758 29.8945 9.53901 28.5213 9.13077C30.0853 10.7851 31.1249 12.8657 31.5091 15.1103C31.6304 15.7913 31.6923 16.4815 31.6944 17.1733C31.6944 17.4483 31.6944 17.7413 31.6585 18.0582L36.7019 23.1109C37.1457 23.5576 37.4703 24.1086 37.646 24.7135C37.8613 25.4454 37.8613 26.2239 37.646 26.9558C37.4687 27.5221 37.1571 28.037 36.7377 28.4567L33.4631 31.7514C32.7435 32.4527 31.7786 32.8451 30.7741 32.8451C29.7696 32.8451 28.8048 32.4527 28.0851 31.7514L24.948 28.6121L22.9163 26.5791L19.9883 23.6431C19.6893 23.3486 19.4463 23.0021 19.2712 22.6206C18.8527 21.7449 18.7801 20.7432 19.068 19.8162C19.0838 19.787 19.1018 19.759 19.1218 19.7325V19.6787C19.1613 19.5626 19.2072 19.4489 19.2593 19.3378C19.2593 19.2781 19.313 19.2183 19.3429 19.1644C19.3728 19.1106 19.4624 18.9552 19.5341 18.8475V18.7997L19.5999 18.704C19.7073 18.5546 19.8273 18.4146 19.9584 18.2854L21.2133 17.0297C21.2018 16.8927 21.1654 16.759 21.1057 16.6351C21.0626 16.5289 20.9974 16.4331 20.9145 16.3541L17.9865 13.4181L17.7713 13.2028L16.3253 14.6499C16.1818 14.7874 16.0444 14.9429 15.895 15.1103L15.8293 15.188L15.7875 15.2478C15.6859 15.3674 15.5903 15.481 15.5006 15.6066L15.411 15.7262V15.7561C15.3214 15.8817 15.2317 16.0072 15.1481 16.1388V16.1687C15.126 16.1992 15.1061 16.2312 15.0883 16.2644C14.9927 16.4198 14.8971 16.5813 14.8135 16.7427C14.5154 17.3132 14.2809 17.9148 14.1143 18.5366C14.0531 18.7329 14.0033 18.9325 13.9649 19.1345C13.7409 20.2503 13.7267 21.398 13.9231 22.519C14.2355 24.314 15.0955 25.9683 16.385 27.2548L18.0701 28.947L20.538 31.4105L24.4819 35.363C26.1613 37.0336 28.433 37.9712 30.801 37.9712C33.169 37.9712 35.4408 37.0336 37.1201 35.363L40.4127 32.0683C41.5468 30.9291 42.3502 29.503 42.7372 27.9424C42.9201 27.2311 43.0164 26.5003 43.024 25.7659C43.022 24.3457 42.6841 22.9463 42.038 21.6818V21.64V21.6041L41.9424 21.5264Z" fill="#C06D3A"/>
<path d="M26.639 10.7214L24.9479 9.02918L22.486 6.57756L18.5242 2.61313C16.8448 0.942581 14.573 0.00491333 12.205 0.00491333C9.83706 0.00491333 7.5653 0.942581 5.88591 2.61313L2.60534 5.90785C1.47599 7.04823 0.673235 8.47103 0.28085 10.0278C0.0982523 10.7491 0.00394409 11.4901 0 12.2342C0.00224166 13.6517 0.337962 15.0487 0.979989 16.3123V16.3601C0.979989 16.3601 0.979989 16.3601 0.979989 16.396L1.00987 16.4558L1.0517 16.5215C1.46956 17.2648 1.99288 17.9436 2.60534 18.5367L10.7082 26.6629C10.7351 26.6938 10.7651 26.7218 10.7978 26.7466C11.8232 27.746 13.0763 28.4807 14.4489 28.8872C12.8743 27.2365 11.8242 25.1556 11.4312 22.9077C11.312 22.2265 11.252 21.5363 11.2519 20.8448C11.2519 20.5697 11.2519 20.2468 11.2878 19.9598L6.23847 14.9489C5.79638 14.5019 5.47376 13.9509 5.30031 13.3464C5.19773 12.9948 5.14543 12.6304 5.14494 12.2641C5.14664 11.8585 5.20908 11.4553 5.33018 11.0682C5.50749 10.5019 5.81912 9.98696 6.23847 9.56734L9.56087 6.24869C10.2805 5.54739 11.2453 5.15496 12.2499 5.15496C13.2544 5.15496 14.2192 5.54739 14.9389 6.24869L18.0461 9.38795L20.0718 11.421L23.0058 14.351C23.3028 14.6472 23.5455 14.9933 23.7229 15.3735C24.1266 16.2562 24.1904 17.2569 23.9022 18.1839L23.8663 18.2855V18.3393C23.825 18.4556 23.7771 18.5694 23.7229 18.6802C23.6986 18.7396 23.6707 18.7976 23.6392 18.8536C23.5835 18.9638 23.5196 19.0698 23.448 19.1705V19.2123L23.3763 19.314C23.2708 19.4632 23.1529 19.6033 23.0238 19.7326L21.7689 20.9883C21.7785 21.1249 21.8129 21.2587 21.8705 21.3829C21.9179 21.4867 21.9826 21.5818 22.0617 21.664L24.9957 24.5999L25.2108 24.8152L26.6569 23.3681C26.7943 23.2306 26.9318 23.0811 27.0812 22.9077C27.1049 22.8813 27.1269 22.8533 27.1469 22.824L27.1947 22.7702L27.4815 22.4114C27.5188 22.364 27.5527 22.314 27.5831 22.2619C27.6787 22.1363 27.7624 22.0108 27.846 21.8792V21.8374L27.8998 21.7536C27.9954 21.5982 28.085 21.4367 28.1747 21.2753C28.4702 20.7036 28.7045 20.1023 28.8738 19.4814C28.9336 19.2721 28.9814 19.0688 29.0232 18.8835C29.2472 17.7677 29.2614 16.62 29.065 15.499C28.7681 13.6942 27.9207 12.0254 26.639 10.7214Z" fill="#C06D3A"/>
</g>
<defs>
<clipPath id="clip0">
<rect width="43" height="38" fill="white"/>
</clipPath>
</defs>
</svg>

<svg width="43" height="38" viewBox="0 0 43 38" fill="none" xmlns="http://www.w3.org/2000/svg"><g clip-path="url(#clip0)" fill="#C06D3A"><path d="M41.942 21.526l-.035-.065a9.008 9.008 0 0 0-1.518-2.04l-8.121-8.06-.096-.084a8.82 8.82 0 0 0-3.65-2.146 11.537 11.537 0 0 1 2.987 5.98c.121.68.183 1.37.185 2.062 0 .275 0 .568-.035.885l5.043 5.053c.444.447.768.998.944 1.602.215.732.215 1.51 0 2.243a3.678 3.678 0 0 1-.908 1.5l-3.275 3.295a3.853 3.853 0 0 1-5.378 0l-3.137-3.139-2.032-2.033-2.928-2.936a3.463 3.463 0 0 1-.717-1.022 3.854 3.854 0 0 1-.203-2.805.662.662 0 0 1 .054-.083v-.054c.04-.116.085-.23.137-.341 0-.06.054-.12.084-.174.03-.053.12-.209.191-.317V18.8l.066-.096c.107-.15.227-.29.358-.419l1.255-1.255a1.126 1.126 0 0 0-.107-.395.808.808 0 0 0-.192-.28l-2.928-2.937-.215-.215-1.446 1.447c-.143.137-.28.293-.43.46l-.066.078-.042.06c-.101.12-.197.233-.286.359l-.09.12v.03c-.09.125-.18.25-.263.382v.03a7.575 7.575 0 0 0-.335.574 8.78 8.78 0 0 0-.699 1.794 5.391 5.391 0 0 0-.15.598 9.162 9.162 0 0 0-.04 3.384 8.828 8.828 0 0 0 2.461 4.736l1.685 1.692 2.468 2.463 3.944 3.953a8.96 8.96 0 0 0 12.638 0l3.293-3.295a8.876 8.876 0 0 0 2.324-4.126c.183-.71.28-1.442.287-2.176a9.004 9.004 0 0 0-.986-4.084v-.078l-.096-.078z"/><path d="M26.639 10.721L24.948 9.03l-2.462-2.451-3.962-3.965a8.96 8.96 0 0 0-12.638 0l-3.28 3.295a8.97 8.97 0 0 0-2.325 4.12A9.19 9.19 0 0 0 0 12.234a9.034 9.034 0 0 0 .98 4.078V16.396l.03.06.042.066a8.826 8.826 0 0 0 1.553 2.015l8.103 8.126c.027.03.057.059.09.084a8.82 8.82 0 0 0 3.65 2.14 11.543 11.543 0 0 1-3.017-5.98c-.119-.68-.179-1.37-.18-2.062 0-.275 0-.598.037-.885l-5.05-5.011a3.75 3.75 0 0 1-.938-1.603 3.883 3.883 0 0 1 .03-2.278 3.678 3.678 0 0 1 .908-1.5l3.323-3.32a3.853 3.853 0 0 1 5.378 0l3.107 3.14 2.026 2.033 2.934 2.93c.297.296.54.642.717 1.022.404.883.467 1.884.18 2.81l-.037.102v.054c-.041.117-.089.23-.143.341-.024.06-.052.118-.084.174-.055.11-.12.216-.191.317v.041l-.072.102a3.24 3.24 0 0 1-.352.419l-1.255 1.255c.01.137.044.27.102.395.047.104.112.199.19.281l2.935 2.936.215.215 1.446-1.447c.137-.137.275-.287.424-.46a.804.804 0 0 0 .066-.084l.048-.054.287-.359c.037-.047.07-.097.101-.15a5.41 5.41 0 0 0 .263-.382v-.042l.054-.083c.095-.156.185-.317.275-.479.295-.571.53-1.173.699-1.794.06-.209.107-.412.15-.598a9.162 9.162 0 0 0 .041-3.384 8.87 8.87 0 0 0-2.426-4.778z"/></g><defs><clipPath id="clip0"><path fill="#fff" d="M0 0h43v38H0z"/></clipPath></defs></svg>
